!! George Gerswhin, "You've Got What Gets Me" from
!! "Bumper Book of George Gerswhin,"
!! London: Chappell Music Ltd., 1987; pp.430-433
**kern
*M2/2
*MM[Moderato]
=1
4a
8.a
16f
4g
8.g
16f
=2
4a
8.a
16f
4g
4a
=3
2f
[2f
=4
2.f]
4r
=5
4ee
8.ee
16cc
4dd
8.dd
16cc
=6
4ee
8.ee
16cc
4dd
4cc
!! page 431
=7
[1a
=8
2.a]
4r
=9
4a
8.a
16f
4g
8.g
16f
=10
4a
8.a
16f
4g
4a
=11
2f
[2f
=12
2.f]
4r
=13
4bn
8.b
16g
4a
4a
=14
1a
=15
4bn
8.b
16g
4a
4a
=16
1a
=17
4.bn
8a
4.cc
8b
=18
4.dd
8cc
8.ee
16cc
8.a
16e
=19
2g
2g
=20
1g
!! page 432
!! Refrain
=21
4r
4dd
4cc
4f
=22
4b-
4a
4r
4b-
=23
4a
4c
4a
[4g
=24
2.g]
4r
=25
4r
4dd
4cc
4f
=26
4b-
4a
4r
4b-
=27
4a
4c
4g
[4f#
=28
1f#]
=29
4r
4d
4e
4fn
=30
8a
4f
[8g
2g]
=31
8a
4f
[8g
8g]
8f
4g
=32
2a
2g#
=33
4r
4e
4f#
4a
=34
8c
4a
[8bn
2b]
=35
8cc
4a
[8bn
8b]
8a
4b
=36
2cc#
2ccn
=37
4r
4dd
4cc
4f
!! page 433
=38
4b-
4a
4r
4b-
=39
4a
4c
4a
[4g
=40
2.g]
4r
=41
4r
4dd
4cc
4f
=42
4b-
4a
4c#
4g
=43
[1f#
=44
2.f#]
4r
=45
4r
4d
4e
4fn
=46
8a
4f
[8g
2g]
=47
8b-
4g
[8a
8a]
8b-
4cc
=48
1dd
=49
4r
4dd
4cc
4f
=50
4b-
4a
4c
4g
!! First ending.
=51
[1f
=52
4f]
4r
2r
!! page 432
!! Refrain
=21
4r
4dd
4cc
4f
=22
4b-
4a
4r
4b-
=23
4a
4c
4a
[4g
=24
2.g]
4r
=25
4r
4dd
4cc
4f
=26
4b-
4a
4r
4b-
=27
4a
4c
4g
[4f#
=28
1f#]
=29
4r
4d
4e
4fn
=30
8a
4f
[8g
2g]
=31
8a
4f
[8g
8g]
8f
4g
=32
2a
2g#
=33
4r
4e
4f#
4a
=34
8c
4a
[8bn
2b]
=35
8cc
4a
[8bn
8b]
8a
4b
=36
2cc#
2ccn
=37
4r
4dd
4cc
4f
!! page 433
=38
4b-
4a
4r
4b-
=39
4a
4c
4a
[4g
=40
2.g]
4r
=41
4r
4dd
4cc
4f
=42
4b-
4a
4c#
4g
=43
[1f#
=44
2.f#]
4r
=45
4r
4d
4e
4fn
=46
8a
4f
[8g
2g]
=47
8b-
4g
[8a
8a]
8b-
4cc
=48
1dd
=49
4r
4dd
4cc
4f
=50
4b-
4a
4c
4g
!! Second ending.
=51
[1f
=52
2f_
4f]
4r
====
*-
